X: 241
T:Huntsman's Chorus. JaW.240
M:2/4
Q:60
S:James Winder Ms, Lancashire, 1835-41
R:Country Dance
O:England
A:Wyresdale,Lancashire
N:With instructions for longways country dance.
H:1/8
Z:vmp.Chris Partington, Aug 2004
K:C
G|c2 c/d/e/f/|g2ee|dgdg|e/f/e/d/ cG|!
c2 c/d/e/f/|g2ee|dgba|g2z:|!
|:d|e2ee|c2cc|f2ff|d2dd|!
ee/e/ ee|cc/c/ cc|ff/f/ fe|d2zG|!
e2ee|{g}f2ee|d2 "qu's"e/d/c/d/|(e2c) G|!
e2ee|(gf)ee|e/d/c/d/ ed|c2z:|]
